X:6515
T:Mrs Robert Chamber
B:William Marshall Volume 2nd Of A Collection Of Scottish Melodies (1845)
C:William Marshall
F:http://richardrobinson.tunebook.org.uk/tune/4129
L:1/8
M:C
O:Scotland
R:Reel
Z:Clark Bernst + Richard Robinson
K:G
%%staves {1 2}
V:1
b | \
dBGc (Bc/d/) BG | Ggfg aAAg | dBGc (Bc/d/) BG | Ag[cf]a !trill![Bg]2 [Bg] ::
a | \
bggb affa | gedB [Ge]A[FA]g |1 bggb affd | egfa !trill!g2 g :|2 \
GBAc Bdce | [Bd]g[cf]a g2 g |]
V:2 clef=bass
L:1/4
z/ | \
[Gg][Gg][Gg][Gg] | [Bb][Gg][Ff][Dd] | [Gg][Gg][Gg][Gg] | [Cc][Dd][Gg][Gg]/ :: \
z/ | \
[gbd'][gbd'][dfd'][dfd'] | [gc'][gb][Cc][Dd] | \
[gbd'][gbd'][Dd][Dd] | [gc'][gc'd'][gbd'][gbd']/ :| \
[Gg][Ff][=F=f][Ee]/[Cc]/ | [Dd][Dd][Gg][Gg]/ |]

